X:354
T:Epsom Wells. (p)1696.PLFD.354
T:Wa Is Me,What Mun I Do! (p)1696.PLFD.354
M:3/4
L:1/8
Q:3/4=45
S:Playford, Dancing Master,9th Ed,1st Supp.,1696.
O:England
H:1696.
Z:Chris Partington
K:F
c3fcA|c2A2F2|d3fdB|d2B2G2|cf2agf|
g2c2A2|B>cdcBA|GFfef2:|
|:afcagf|g2c2A2|fdAfdA|=B2(B/c/d)G2|
gecgec|d=BdBGg|dgegdg|(ed/e/) (f/e/)(d/c/)c2|
f>e fgfe|f3gf2|g>fgagf|g3ag2|
a>gabag|a>bagf2|f>g (f/g/a) gf|fgfcf2|]
